public/avatar/body/61.svg

<svg xmlns:xlink="http://www.w3.org/1999/xlink" height="82" width="84.85" xmlns="http://www.w3.org/2000/svg"><g transform="translate(37.4 42.25)"><use height="38" transform="translate(-11.95 -17.45)" width="32.05" xlink:href="#a"/><use height="38.95" transform="translate(-12.45 -17.95)" width="33.05" xlink:href="#b"/><use height="31.7" transform="translate(-12.15 -10.6)" width="32.35" xlink:href="#c"/></g><defs><path d="M27.35 7.4q2.15 4.15 3.55 8.75 1.45 4.7 1.15 9.5-.35 4.95-4.2 8.1-3.8 3.2-8.75 4.05l-2.6.2q-3.6 0-7.05-1.15-4.65-1.6-7.1-5.5Q-.2 27.4.05 23q.2-4.4 2-9.3Q3.85 8.75 7 5.05 10.1 1.3 14.7.1l1.8-.1q1.9.05 3.7.8 4.75 2.05 7.15 6.6" fill="#d8ae61" fill-rule="evenodd" transform="translate(-.05)" id="d"/><path d="M27.35 7.4Q24.95 2.85 20.2.8 17.55-.3 14.7.1 10.1 1.3 7 5.05q-3.15 3.7-4.95 8.65-1.8 4.9-2 9.3-.25 4.4 2.3 8.35 2.45 3.9 7.1 5.5 4.65 1.55 9.65.95 4.95-.85 8.75-4.05 3.85-3.15 4.2-8.1.3-4.8-1.15-9.5-1.4-4.6-3.55-8.75Z" fill="none" stroke="#6e441a" stroke-linecap="round" stroke-linejoin="round" transform="translate(.45 .5)" id="e"/><use height="38" width="32.05" xlink:href="#d" id="a"/><use height="38.95" width="33.05" xlink:href="#e" id="b"/><g id="c"><path d="M1.5-.3Q-1.1 1.55-4.45.85q-3.2-.6-5.55-2.5l.25-1q.55-2.7 2.1-4.9l.3-.45.85-1.3 9.7-1.25q5.95-.2 11.85 1.05l.2.45L15.8-8l.2.45.1.25 1.4 2.9.75 2.15q-3.9 3.9-9.6 2.6L6.95-.4Q4.3-2.25 1.5-.3M14.7-8h1.1-1.1" fill="#f0bb88" fill-rule="evenodd" transform="translate(12.15 10.6)"/><path d="m-11.65 2.9.7-1.25V1.6l3.75 5.45.75 2.25v-.25l1.05 1.3h.95l3.2.3q1.15.25 1.5.6l2.6 3.15H5.6q1.4-3 3.15-3.6l4.85-.9.65-.05h.05l.05-.05h.05L18 1.05l.15-.25.2.2.75-1.4h.3l.05.05.05.05.1.2q.7 1.95-.6 3.6l-.1.25-.7 1.15-.05.1-.4.95-.05.25v.05l-.1.1v.05l-.05.05v.05l-.35.75-.05.1-.2.45q-.3.4-.35.95l-.25.55-.05 1v1q-.1 1.25.55 1.7l2.45.05-.55 1-1.9.45q-5.25 1.55-9.75 5.9-3.15.4-6.4-.1-2.9-2.65-10-5.5v-.4h-.85q-.3-1.4 0-1.8.2-.4.85-.15l.1.05q1.25.45 1.25-1.2l-.15-.8-.55-1.2-2.6-5.9v-.05l-.4-.45" fill="#00b5a7" fill-rule="evenodd" transform="translate(12.15 10.6)"/><path d="m-11.65 2.9.4-2.55m18.45 20q5.85-5.2 11.05-6m-17.55 6q-3.35-3.7-10.05-5.85" fill="none" stroke="#006c64" stroke-linecap="round" stroke-linejoin="round" transform="translate(12.15 10.6)"/><path d="m4.2 14.4.05-1.2q-.1-2.1-2.5-2.9m4.9-.2q-2.2 1.15-2.4 3.1" fill="none" stroke="#a95401" stroke-linecap="round" stroke-linejoin="round" transform="translate(12.15 10.6)"/><path d="M19.2-.4Q15.5 5 14.3 9.9l-.7.05q-5.9.5-8.15 4.45m-2.6 0Q.6 10.45-5.5 10.05-7.75 5.1-11.25.35" fill="none" stroke="#67f1e6" stroke-linecap="round" stroke-linejoin="round" transform="translate(12.15 10.6)"/><path d="M.7 20.3q3.25.5 6.4.1M19.15-.4l.55 2.6m-1.45 12 .65-1.7m-28.2 1.9-1.1-1.85" fill="none" stroke="#006c64" stroke-linecap="round" stroke-linejoin="round" transform="translate(12.15 10.6)"/></g></defs></svg>

<?xml version="1.0" encoding="UTF-8" standalone="no"?>
<svg xmlns:xlink="http://www.w3.org/1999/xlink" height="82.0px" width="84.85px" xmlns="http://www.w3.org/2000/svg">
  <g transform="matrix(1.0, 0.0, 0.0, 1.0, 37.4, 42.25)">
    <use height="38.0" transform="matrix(1.0, 0.0, 0.0, 1.0, -11.95, -17.45)" width="32.05" xlink:href="#sprite0"/>
    <use height="38.95" transform="matrix(1.0, 0.0, 0.0, 1.0, -12.45, -17.95)" width="33.05" xlink:href="#sprite1"/>
    <use height="31.7" transform="matrix(1.0, 0.0, 0.0, 1.0, -12.15, -10.6)" width="32.35" xlink:href="#shape2"/>
  </g>
  <defs>
    <g id="sprite0" transform="matrix(1.0, 0.0, 0.0, 1.0, -0.05, 0.0)">
      <use height="38.0" transform="matrix(1.0, 0.0, 0.0, 1.0, 0.05, 0.0)" width="32.05" xlink:href="#shape0"/>
    </g>
    <g id="shape0" transform="matrix(1.0, 0.0, 0.0, 1.0, -0.05, 0.0)">
      <path d="M27.35 7.4 Q29.5 11.55 30.9 16.15 32.35 20.85 32.05 25.65 31.7 30.6 27.85 33.75 24.05 36.95 19.1 37.8 L16.5 38.0 Q12.9 38.0 9.45 36.85 4.8 35.25 2.35 31.35 -0.2 27.4 0.05 23.0 0.25 18.6 2.05 13.7 3.85 8.75 7.0 5.05 10.1 1.3 14.7 0.1 L16.5 0.0 Q18.4 0.05 20.2 0.8 24.95 2.85 27.35 7.4" fill="#d8ae61" fill-rule="evenodd" stroke="none"/>
    </g>
    <g id="sprite1" transform="matrix(1.0, 0.0, 0.0, 1.0, 0.45, 0.5)">
      <use height="38.95" transform="matrix(1.0, 0.0, 0.0, 1.0, -0.45, -0.5)" width="33.05" xlink:href="#shape1"/>
    </g>
    <g id="shape1" transform="matrix(1.0, 0.0, 0.0, 1.0, 0.45, 0.5)">
      <path d="M27.35 7.4 Q24.95 2.85 20.2 0.8 17.55 -0.3 14.7 0.1 10.1 1.3 7.0 5.05 3.85 8.75 2.05 13.7 0.25 18.6 0.05 23.0 -0.2 27.4 2.35 31.35 4.8 35.25 9.45 36.85 14.1 38.4 19.1 37.8 24.05 36.95 27.85 33.75 31.7 30.6 32.05 25.65 32.35 20.85 30.9 16.15 29.5 11.55 27.35 7.4 Z" fill="none" stroke="#6e441a" stroke-linecap="round" stroke-linejoin="round" stroke-width="1.0"/>
    </g>
    <g id="shape2" transform="matrix(1.0, 0.0, 0.0, 1.0, 12.15, 10.6)">
      <path d="M1.5 -0.3 Q-1.1 1.55 -4.45 0.85 -7.65 0.25 -10.0 -1.65 L-9.75 -2.65 Q-9.2 -5.35 -7.65 -7.55 L-7.35 -8.0 -6.5 -9.3 3.2 -10.55 Q9.15 -10.75 15.05 -9.5 L15.25 -9.05 15.8 -8.0 16.0 -7.55 16.1 -7.3 17.5 -4.4 18.25 -2.25 Q14.35 1.65 8.65 0.35 L6.95 -0.4 Q4.3 -2.25 1.5 -0.3 M14.7 -8.0 L15.8 -8.0 14.7 -8.0" fill="#f0bb88" fill-rule="evenodd" stroke="none"/>
      <path d="M-11.65 2.9 L-10.95 1.65 -10.95 1.6 -7.2 7.05 -6.45 9.3 -6.45 9.05 -5.4 10.35 -4.45 10.35 -1.25 10.65 Q-0.1 10.9 0.25 11.25 L2.85 14.4 5.6 14.4 Q7.0 11.4 8.75 10.8 L13.6 9.9 14.25 9.85 14.3 9.85 14.35 9.8 14.4 9.8 18.0 1.05 18.15 0.8 18.35 1.0 19.1 -0.4 19.15 -0.4 19.4 -0.4 19.45 -0.35 19.5 -0.3 19.6 -0.1 Q20.3 1.85 19.0 3.5 L18.9 3.75 18.2 4.9 18.15 5.0 17.75 5.95 17.7 6.2 17.7 6.25 17.6 6.35 17.6 6.4 17.55 6.45 17.55 6.5 17.2 7.25 17.15 7.35 16.95 7.8 Q16.65 8.2 16.6 8.75 L16.35 9.3 16.3 10.3 16.3 10.55 16.3 11.3 Q16.2 12.55 16.85 13.0 L19.3 13.05 18.75 14.05 16.85 14.5 Q11.6 16.05 7.1 20.4 3.95 20.8 0.7 20.3 -2.2 17.65 -9.3 14.8 L-9.3 14.4 -10.15 14.4 Q-10.45 13.0 -10.15 12.6 -9.95 12.2 -9.3 12.45 L-9.2 12.5 Q-7.95 12.95 -7.95 11.3 L-8.1 10.5 -8.65 9.3 -11.25 3.4 -11.25 3.35 -11.65 2.9" fill="#00b5a7" fill-rule="evenodd" stroke="none"/>
      <path d="M-11.65 2.9 L-11.25 0.35" fill="none" stroke="#006c64" stroke-linecap="round" stroke-linejoin="round" stroke-width="1.0"/>
      <path d="M7.2 20.35 Q13.05 15.15 18.25 14.35 M0.7 20.35 Q-2.65 16.65 -9.35 14.5" fill="none" stroke="#006c64" stroke-linecap="round" stroke-linejoin="round" stroke-width="1.0"/>
      <path d="M4.2 14.4 L4.25 13.2 Q4.15 11.1 1.75 10.3 M6.65 10.1 Q4.45 11.25 4.25 13.2" fill="none" stroke="#a95401" stroke-linecap="round" stroke-linejoin="round" stroke-width="1.0"/>
      <path d="M19.2 -0.4 Q15.5 5.0 14.3 9.9 L13.6 9.95 Q7.7 10.45 5.45 14.4 M2.85 14.4 Q0.6 10.45 -5.5 10.05 -7.75 5.1 -11.25 0.35" fill="none" stroke="#67f1e6" stroke-linecap="round" stroke-linejoin="round" stroke-width="1.0"/>
      <path d="M0.7 20.3 Q3.95 20.8 7.1 20.4 M19.15 -0.4 L19.7 2.2" fill="none" stroke="#006c64" stroke-linecap="round" stroke-linejoin="round" stroke-width="1.0"/>
      <path d="M18.25 14.2 L18.9 12.5 M-9.3 14.4 L-10.4 12.55" fill="none" stroke="#006c64" stroke-linecap="round" stroke-linejoin="round" stroke-width="1.0"/>
    </g>
  </defs>
</svg>
